static/images/logo_eb_nl.svg

<?xml version="1.0" encoding="UTF-8"?>
<svg xmlns="http://www.w3.org/2000/svg" xmlns:xlink="http://www.w3.org/1999/xlink" width="120pt" height="22pt" viewBox="0 0 120 22" version="1.1">
<g>
<path fill="#FFFFFF" d="
M23.277,12.922h4.125v1.059h-2.875v2.699h2.316v1.043h-2.316v2.961h2.875v1.055h-4.125Z
M29.039,12.922h1.441l2.781,7.027c-0.098,-0.719,-0.18,-1.559,-0.18,-2.348v-4.68h1.195v8.816h-1.438l-2.809,-7.051c0.109,0.719,0.203,1.574,0.203,2.371v4.68h-1.195Z
M40.289,17.832v2.879h0.719c0.988,0,1.68,-0.082,1.68,-1.426c0,-1.355,-0.703,-1.453,-1.68,-1.453ZM40.289,13.953v2.879h0.434c0.988,0,1.695,-0.098,1.695,-1.453c0,-1.344,-0.707,-1.426,-1.695,-1.426ZM39.039,12.922h1.723c1.738,0,2.945,0.449,2.945,2.418c0,1.016,-0.41,1.598,-0.992,1.926c0.734,0.281,1.262,0.895,1.262,2.059c0,1.941,-1.191,2.414,-2.93,2.414h-2.008v-8.816
M45.453,12.922h4.125v1.059h-2.875v2.699h2.32v1.043h-2.32v2.961h2.875v1.055h-4.125Z
M52.465,13.953v6.758h0.965c1.273,0,1.656,-0.586,1.656,-3.379c0,-2.797,-0.383,-3.379,-1.656,-3.379ZM51.219,12.922h2.305c2.309,0,2.848,1.234,2.848,4.41c0,3.133,-0.555,4.406,-2.848,4.406h-2.305v-8.816
M59.246,13.98v3.109h0.664c0.98,0,1.629,-0.207,1.629,-1.562c0,-1.344,-0.648,-1.547,-1.629,-1.547ZM58,12.922h2.035c1.625,0,2.793,0.609,2.793,2.605c0,1.398,-0.68,2.074,-1.531,2.387l1.871,3.824h-1.426l-1.652,-3.594h-0.844v3.594h-1.246v-8.816
M64.523,12.922h1.246v5.238h-1.246ZM64.523,21.457v-1.102c0.312,0.191,0.977,0.449,1.805,0.449c1.34,0,1.926,-0.543,1.926,-2.047v-5.836h1.246v5.969c0,1.996,-0.934,3.012,-3.039,3.012c-1.043,0,-1.707,-0.285,-1.938,-0.445
M71.398,12.922h3.988v1.059h-2.742v2.699h2.199v1.043h-2.199v4.016h-1.246Z
M81.758,12.922h1.25v4.004l2.562,-4.004h1.398l-2.781,4.301l2.984,4.516h-1.508l-2.656,-4.137v4.137h-1.25Z
M87.996,19.082v-6.16h1.25v6.215c0,1.301,0.445,1.68,1.355,1.68c0.91,0,1.355,-0.379,1.355,-1.68v-6.215h1.25v6.16c0,2.008,-0.84,2.82,-2.605,2.82c-1.789,0,-2.605,-0.785,-2.605,-2.82
M95.105,12.922h1.438l2.781,7.027c-0.098,-0.719,-0.18,-1.559,-0.18,-2.348v-4.68h1.195v8.816h-1.438l-2.809,-7.051c0.109,0.719,0.203,1.574,0.203,2.371v4.68h-1.191Z
M103.555,13.953v6.758h0.961c1.277,0,1.656,-0.586,1.656,-3.379c0,-2.797,-0.379,-3.379,-1.656,-3.379ZM102.305,12.922h2.305c2.309,0,2.852,1.234,2.852,4.41c0,3.133,-0.559,4.406,-2.852,4.406h-2.305v-8.816
M109.086,12.922h4.125v1.059h-2.875v2.699h2.316v1.043h-2.316v2.961h2.875v1.055h-4.125Z
M23.277,0.48h3.988v1.059h-2.738v2.699h2.195v1.043h-2.195v4.016h-1.25Z
M29.137,6.246h1.941l-0.367,-1.465c-0.191,-0.734,-0.434,-1.859,-0.582,-2.836c-0.164,0.977,-0.422,2.102,-0.613,2.836ZM29.477,0.48h1.289l2.344,8.816h-1.301l-0.516,-1.992h-2.398l-0.504,1.992h-1.262l2.348,-8.816
M33.746,4.891c0,-3.297,0.719,-4.57,2.863,-4.57c0.652,0,1.234,0.16,1.52,0.324v1.152c-0.324,-0.176,-0.895,-0.352,-1.438,-0.352c-1.289,0,-1.656,0.582,-1.656,3.445c0,2.887,0.395,3.457,1.656,3.457c0.555,0,1.195,-0.191,1.52,-0.379v1.152c-0.285,0.164,-0.965,0.34,-1.574,0.34c-2.32,0.012,-2.891,-1.277,-2.891,-4.57
M39.422,6.641v-6.16h1.25v6.215c0,1.301,0.445,1.68,1.355,1.68c0.91,0,1.359,-0.379,1.359,-1.68v-6.215h1.246v6.16c0,2.008,-0.84,2.82,-2.605,2.82c-1.789,0,-2.605,-0.789,-2.605,-2.82
M46.531,0.48h1.246v7.758h2.742v1.059h-3.988Z
M50.086,0.48h5.059v1.059h-1.914v7.758h-1.25v-7.758h-1.895Z
M56.188,0.48h4.121v1.059h-2.875v2.699h2.32v1.043h-2.32v2.957h2.875v1.059h-4.121Z
M61.949,9.297h1.25v-8.816h-1.25Z
M64.242,0.48h5.059v1.059h-1.91v7.758h-1.25v-7.758h-1.898Z
M72.734,0.48h4.125v1.059h-2.875v2.699h2.32v1.043h-2.32v2.957h2.875v1.059h-4.125Z
M77.957,4.891c0,-3.297,0.719,-4.57,2.859,-4.57c0.656,0,1.238,0.16,1.523,0.324v1.152c-0.328,-0.176,-0.898,-0.352,-1.441,-0.352c-1.289,0,-1.652,0.582,-1.652,3.445c0,2.887,0.395,3.457,1.652,3.457c0.559,0,1.195,-0.191,1.523,-0.379v1.152c-0.285,0.164,-0.965,0.34,-1.574,0.34c-2.32,0.012,-2.891,-1.277,-2.891,-4.57
M87.465,4.891c0,-2.77,-0.285,-3.488,-1.426,-3.488c-1.141,0,-1.41,0.719,-1.41,3.488c0,2.766,0.27,3.484,1.41,3.484c1.141,0,1.426,-0.719,1.426,-3.484ZM83.344,4.891c0,-3.652,0.867,-4.57,2.695,-4.57c1.887,0,2.715,0.879,2.715,4.57c0,3.66,-0.867,4.57,-2.715,4.57c-1.871,0,-2.695,-0.867,-2.695,-4.57
M90.379,0.48h1.438l2.781,7.027c-0.094,-0.719,-0.176,-1.559,-0.176,-2.348v-4.68h1.191v8.816h-1.434l-2.812,-7.055c0.113,0.723,0.207,1.574,0.207,2.375v4.68h-1.195Z
M101.363,4.891c0,-2.77,-0.285,-3.488,-1.422,-3.488c-1.141,0,-1.41,0.719,-1.41,3.488c0,2.766,0.27,3.484,1.41,3.484c1.137,0,1.422,-0.719,1.422,-3.484ZM97.242,4.891c0,-3.652,0.867,-4.57,2.699,-4.57c1.883,0,2.711,0.879,2.711,4.57c0,3.66,-0.867,4.57,-2.711,4.57c-1.875,0,-2.699,-0.867,-2.699,-4.57
M104.277,0.48h1.617l1.547,4.641l1.559,-4.641h1.562v8.816h-1.195v-4.582c0,-0.98,0.066,-1.996,0.148,-2.785l-1.602,4.75h-0.988l-1.613,-4.762c0.082,0.789,0.16,1.816,0.16,2.797v4.582h-1.195Z
M112.523,9.297h1.25v-8.816h-1.25Z
M115.738,0.48h4.125v1.059h-2.875v2.699h2.32v1.043h-2.32v2.957h2.875v1.059h-4.125Z
M78.781,13.832c0.551,-0.004,1.07,0.18,1.309,0.367v-1.125c-0.238,-0.148,-0.824,-0.309,-1.418,-0.309c-1.652,0,-2.566,0.941,-2.566,2.305c0,1.141,0.484,1.688,1.258,2.355l0.711,0.613c0.586,0.492,0.949,0.867,0.949,1.602c0,0.855,-0.566,1.199,-1.418,1.199c-0.641,0,-1.18,-0.184,-1.488,-0.395v1.145c0.273,0.156,0.84,0.316,1.602,0.316c1.652,-0.004,2.562,-0.941,2.562,-2.309c0.004,-1.137,-0.48,-1.688,-1.258,-2.355l-0.707,-0.613c-0.59,-0.5,-0.953,-0.863,-0.953,-1.598c0.004,-0.863,0.566,-1.199,1.418,-1.199
M17.777,20.492h-16.27v-20.012h-1.246v21.258h18.766Z
M2.754,19.246h1.246v-10.766h-1.246Z
M5.246,19.246h1.25v-6.785h-1.25Z
M7.742,19.246h1.25v-10.766h-1.25Z
M10.238,19.246h1.246v-13.414h-1.246Z
M12.73,19.246h1.25v-5.461h-1.25Z
"/>
</g>
</svg>

<?xml version="1.0" encoding="UTF-8"?>
<svg xmlns="http://www.w3.org/2000/svg" xmlns:xlink="http://www.w3.org/1999/xlink" width="120pt" height="22pt" viewBox="0 0 120 22" version="1.1">
<g id="surface1">
<path fill="#FFFFFF" d="M23.277,12.922L27.402,12.922L27.402,13.98L24.527,13.98L24.527,16.68L26.844,16.68L26.844,17.723L24.527,17.723L24.527,20.684L27.402,20.684L27.402,21.738L23.277,21.738L23.277,12.922"/>
<path fill="#FFFFFF" d="M29.039,12.922L30.48,12.922L33.262,19.949C33.164,19.23,33.082,18.391,33.082,17.602L33.082,12.922L34.277,12.922L34.277,21.738L32.84,21.738L30.031,14.688C30.141,15.406,30.234,16.262,30.234,17.059L30.234,21.738L29.039,21.738L29.039,12.922"/>
<path fill="#FFFFFF" d="M40.289,17.832L40.289,20.711L41.008,20.711C41.996,20.711,42.688,20.629,42.688,19.285C42.688,17.93,41.984,17.832,41.008,17.832Z M40.289,13.953L40.289,16.832L40.723,16.832C41.711,16.832,42.418,16.734,42.418,15.379C42.418,14.035,41.711,13.953,40.723,13.953Z M39.039,12.922L40.762,12.922C42.5,12.922,43.707,13.371,43.707,15.34C43.707,16.355,43.297,16.938,42.715,17.266C43.449,17.547,43.977,18.16,43.977,19.324C43.977,21.266,42.785,21.738,41.047,21.738L39.039,21.738L39.039,12.922"/>
<path fill="#FFFFFF" d="M45.453,12.922L49.578,12.922L49.578,13.98L46.703,13.98L46.703,16.68L49.023,16.68L49.023,17.723L46.703,17.723L46.703,20.684L49.578,20.684L49.578,21.738L45.453,21.738L45.453,12.922"/>
<path fill="#FFFFFF" d="M52.465,13.953L52.465,20.711L53.43,20.711C54.703,20.711,55.086,20.125,55.086,17.332C55.086,14.535,54.703,13.953,53.43,13.953Z M51.219,12.922L53.523,12.922C55.832,12.922,56.371,14.156,56.371,17.332C56.371,20.465,55.816,21.738,53.523,21.738L51.219,21.738L51.219,12.922"/>
<path fill="#FFFFFF" d="M59.246,13.98L59.246,17.09L59.91,17.09C60.891,17.09,61.539,16.883,61.539,15.527C61.539,14.184,60.891,13.98,59.91,13.98Z M58,12.922L60.035,12.922C61.66,12.922,62.828,13.531,62.828,15.527C62.828,16.926,62.148,17.602,61.297,17.914L63.168,21.738L61.742,21.738L60.09,18.145L59.246,18.145L59.246,21.738L58,21.738L58,12.922"/>
<path fill="#FFFFFF" d="M64.523,12.922L65.77,12.922L65.77,18.16L64.523,18.16Z M64.523,21.457L64.523,20.355C64.836,20.547,65.5,20.805,66.328,20.805C67.668,20.805,68.254,20.262,68.254,18.758L68.254,12.922L69.5,12.922L69.5,18.891C69.5,20.887,68.566,21.902,66.461,21.902C65.418,21.902,64.754,21.617,64.523,21.457"/>
<path fill="#FFFFFF" d="M71.398,12.922L75.387,12.922L75.387,13.98L72.645,13.98L72.645,16.68L74.844,16.68L74.844,17.723L72.645,17.723L72.645,21.738L71.398,21.738L71.398,12.922"/>
<path fill="#FFFFFF" d="M81.758,12.922L83.008,12.922L83.008,16.926L85.57,12.922L86.969,12.922L84.188,17.223L87.172,21.738L85.664,21.738L83.008,17.602L83.008,21.738L81.758,21.738L81.758,12.922"/>
<path fill="#FFFFFF" d="M87.996,19.082L87.996,12.922L89.246,12.922L89.246,19.137C89.246,20.438,89.691,20.816,90.602,20.816C91.512,20.816,91.957,20.438,91.957,19.137L91.957,12.922L93.207,12.922L93.207,19.082C93.207,21.09,92.367,21.902,90.602,21.902C88.812,21.902,87.996,21.117,87.996,19.082"/>
<path fill="#FFFFFF" d="M95.105,12.922L96.543,12.922L99.324,19.949C99.227,19.23,99.145,18.391,99.145,17.602L99.145,12.922L100.34,12.922L100.34,21.738L98.902,21.738L96.094,14.688C96.203,15.406,96.297,16.262,96.297,17.059L96.297,21.738L95.105,21.738L95.105,12.922"/>
<path fill="#FFFFFF" d="M103.555,13.953L103.555,20.711L104.516,20.711C105.793,20.711,106.172,20.125,106.172,17.332C106.172,14.535,105.793,13.953,104.516,13.953Z M102.305,12.922L104.609,12.922C106.918,12.922,107.461,14.156,107.461,17.332C107.461,20.465,106.902,21.738,104.609,21.738L102.305,21.738L102.305,12.922"/>
<path fill="#FFFFFF" d="M109.086,12.922L113.211,12.922L113.211,13.98L110.336,13.98L110.336,16.68L112.652,16.68L112.652,17.723L110.336,17.723L110.336,20.684L113.211,20.684L113.211,21.738L109.086,21.738L109.086,12.922"/>
<path fill="#FFFFFF" d="M23.277,0.48L27.266,0.48L27.266,1.539L24.527,1.539L24.527,4.238L26.723,4.238L26.723,5.281L24.527,5.281L24.527,9.297L23.277,9.297L23.277,0.48"/>
<path fill="#FFFFFF" d="M29.137,6.246L31.078,6.246L30.711,4.781C30.52,4.047,30.277,2.922,30.129,1.945C29.965,2.922,29.707,4.047,29.516,4.781Z M29.477,0.48L30.766,0.48L33.109,9.297L31.809,9.297L31.293,7.305L28.895,7.305L28.391,9.297L27.129,9.297L29.477,0.48"/>
<path fill="#FFFFFF" d="M33.746,4.891C33.746,1.594,34.465,0.32,36.609,0.32C37.262,0.32,37.844,0.48,38.129,0.645L38.129,1.797C37.805,1.621,37.234,1.445,36.691,1.445C35.402,1.445,35.035,2.027,35.035,4.891C35.035,7.777,35.43,8.348,36.691,8.348C37.246,8.348,37.887,8.156,38.211,7.969L38.211,9.121C37.926,9.285,37.246,9.461,36.637,9.461C34.316,9.473,33.746,8.184,33.746,4.891"/>
<path fill="#FFFFFF" d="M39.422,6.641L39.422,0.48L40.672,0.48L40.672,6.695C40.672,7.996,41.117,8.375,42.027,8.375C42.938,8.375,43.387,7.996,43.387,6.695L43.387,0.48L44.633,0.48L44.633,6.641C44.633,8.648,43.793,9.461,42.027,9.461C40.238,9.461,39.422,8.672,39.422,6.641"/>
<path fill="#FFFFFF" d="M46.531,0.48L47.777,0.48L47.777,8.238L50.52,8.238L50.52,9.297L46.531,9.297L46.531,0.48"/>
<path fill="#FFFFFF" d="M50.086,0.48L55.145,0.48L55.145,1.539L53.23,1.539L53.23,9.297L51.98,9.297L51.98,1.539L50.086,1.539L50.086,0.48"/>
<path fill="#FFFFFF" d="M56.188,0.48L60.309,0.48L60.309,1.539L57.434,1.539L57.434,4.238L59.754,4.238L59.754,5.281L57.434,5.281L57.434,8.238L60.309,8.238L60.309,9.297L56.188,9.297L56.188,0.48"/>
<path fill="#FFFFFF" d="M61.949,9.297L63.199,9.297L63.199,0.48L61.949,0.48Z M61.949,9.297"/>
<path fill="#FFFFFF" d="M64.242,0.48L69.301,0.48L69.301,1.539L67.391,1.539L67.391,9.297L66.141,9.297L66.141,1.539L64.242,1.539L64.242,0.48"/>
<path fill="#FFFFFF" d="M72.734,0.48L76.859,0.48L76.859,1.539L73.984,1.539L73.984,4.238L76.305,4.238L76.305,5.281L73.984,5.281L73.984,8.238L76.859,8.238L76.859,9.297L72.734,9.297L72.734,0.48"/>
<path fill="#FFFFFF" d="M77.957,4.891C77.957,1.594,78.676,0.32,80.816,0.32C81.473,0.32,82.055,0.48,82.34,0.645L82.34,1.797C82.012,1.621,81.441,1.445,80.898,1.445C79.609,1.445,79.246,2.027,79.246,4.891C79.246,7.777,79.641,8.348,80.898,8.348C81.457,8.348,82.094,8.156,82.422,7.969L82.422,9.121C82.137,9.285,81.457,9.461,80.848,9.461C78.527,9.473,77.957,8.184,77.957,4.891"/>
<path fill="#FFFFFF" d="M87.465,4.891C87.465,2.121,87.18,1.402,86.039,1.402C84.898,1.402,84.629,2.121,84.629,4.891C84.629,7.656,84.898,8.375,86.039,8.375C87.18,8.375,87.465,7.656,87.465,4.891Z M83.344,4.891C83.344,1.238,84.211,0.32,86.039,0.32C87.926,0.32,88.754,1.199,88.754,4.891C88.754,8.551,87.887,9.461,86.039,9.461C84.168,9.461,83.344,8.594,83.344,4.891"/>
<path fill="#FFFFFF" d="M90.379,0.48L91.816,0.48L94.598,7.508C94.504,6.789,94.422,5.949,94.422,5.16L94.422,0.48L95.613,0.48L95.613,9.297L94.18,9.297L91.367,2.242C91.48,2.965,91.574,3.816,91.574,4.617L91.574,9.297L90.379,9.297L90.379,0.48"/>
<path fill="#FFFFFF" d="M101.363,4.891C101.363,2.121,101.078,1.402,99.941,1.402C98.801,1.402,98.531,2.121,98.531,4.891C98.531,7.656,98.801,8.375,99.941,8.375C101.078,8.375,101.363,7.656,101.363,4.891Z M97.242,4.891C97.242,1.238,98.109,0.32,99.941,0.32C101.824,0.32,102.652,1.199,102.652,4.891C102.652,8.551,101.785,9.461,99.941,9.461C98.066,9.461,97.242,8.594,97.242,4.891"/>
<path fill="#FFFFFF" d="M104.277,0.48L105.895,0.48L107.441,5.121L109,0.48L110.562,0.48L110.562,9.297L109.367,9.297L109.367,4.715C109.367,3.734,109.434,2.719,109.516,1.93L107.914,6.68L106.926,6.68L105.312,1.918C105.395,2.707,105.473,3.734,105.473,4.715L105.473,9.297L104.277,9.297L104.277,0.48"/>
<path fill="#FFFFFF" d="M112.523,9.297L113.773,9.297L113.773,0.48L112.523,0.48Z M112.523,9.297"/>
<path fill="#FFFFFF" d="M115.738,0.48L119.863,0.48L119.863,1.539L116.988,1.539L116.988,4.238L119.309,4.238L119.309,5.281L116.988,5.281L116.988,8.238L119.863,8.238L119.863,9.297L115.738,9.297L115.738,0.48"/>
<path fill="#FFFFFF" d="M78.781,13.832C79.332,13.828,79.852,14.012,80.09,14.199L80.09,13.074C79.852,12.926,79.266,12.766,78.672,12.766C77.02,12.766,76.105,13.707,76.105,15.07C76.105,16.211,76.59,16.758,77.363,17.426L78.074,18.039C78.66,18.531,79.023,18.906,79.023,19.641C79.023,20.496,78.457,20.84,77.605,20.84C76.965,20.84,76.426,20.656,76.117,20.445L76.117,21.59C76.391,21.746,76.957,21.906,77.719,21.906C79.371,21.902,80.281,20.965,80.281,19.598C80.285,18.461,79.801,17.91,79.023,17.242L78.316,16.629C77.727,16.129,77.363,15.766,77.363,15.031C77.367,14.168,77.93,13.832,78.781,13.832"/>
<path fill="#FFFFFF" d="M17.777,20.492L1.508,20.492L1.508,0.48L0.262,0.48L0.262,21.738L19.027,21.738L17.777,20.492"/>
<path fill="#FFFFFF" d="M2.754,19.246L4,19.246L4,8.48L2.754,8.48Z M2.754,19.246"/>
<path fill="#FFFFFF" d="M5.246,19.246L6.496,19.246L6.496,12.461L5.246,12.461Z M5.246,19.246"/>
<path fill="#FFFFFF" d="M7.742,19.246L8.992,19.246L8.992,8.48L7.742,8.48Z M7.742,19.246"/>
<path fill="#FFFFFF" d="M10.238,19.246L11.484,19.246L11.484,5.832L10.238,5.832Z M10.238,19.246"/>
<path fill="#FFFFFF" d="M12.73,19.246L13.98,19.246L13.98,13.785L12.73,13.785Z M12.73,19.246"/>
</g>
</svg>
